X: 40
T: Missa Fors seulement / Credo
N: Derived from Ock1007c-Missa_Fors_seulement-Credo.krn
C: Johannes Ockeghem
%%abc-version 2.0
%%abcx-abcm2ps-target-version 5.9.1 (29 Sep 2008)
%%abc-creator hum2abc beta
%%abcx-conversion-date 2019/02/17 07:26:14
%%abc-edited-by Jesse Rodin
%%abc-edited-by Chris Gage 07-02-2012
%%abcx-initial-encoding-date 2012/08/16/
%%humdrum-veritas 55873691
%%humdrum-veritas-data 2931038790
%%linebreak <none>
%%barnumbers 0
L: 1/4
M: 3/1
Q: 1/2=120
V: 1 clef=treble
V: 2 clef=treble
V: 3 clef=treble-8
V: 4 clef=treble-8
V: 5 clef=bass
K: C
[V:1] z12 | 
[V:2] z12 | 
[V:3] A8A4 | 
[V:4] z12 | 
[V:5] A,,4A,,4A,,4 | 
[V:1] z12 | 
[V:2] z12 | 
[V:3] A2A2A2A4GF | 
[V:4] z12 | 
[V:5] C,2D,3C,A,,2C,2D,2 | 
[V:1] E4G8 | 
[V:2] E4E6DC | 
[V:3] E4z4z4 | 
[V:4] E4E8 | 
[V:5] E,4z4z4 | 
[V:1] G4G4G3A | 
[V:2] B,6C2B,2E2- | 
[V:3] z12 | 
[V:4] E4E4E3F | 
[V:5] z12 | 
[V:1] B2c2B2c4A2 | 
[V:2] E2E2E4C2D2 | 
[V:3] z12 | 
[V:4] G2A2G2A3G/F/ED | 
[V:5] z12 | 
[V:1] G4z2c4c2 | 
[V:2] B,4E6E2 | 
[V:3] z12 | 
[V:4] E8z2A2- | 
[V:5] z4A,,6A,,2 | 
[V:1] c2c2c4B2A2 | 
[V:2] E2E2E2E4C2 | 
[V:3] z4z4E4 | 
[V:4] A2GFE4z4 | 
[V:5] A,,2A,,2C,3B,,/A,,/G,,2A,,2 | 
[V:1] B4z2E2D2G2- | 
[V:2] B,4C4D4 | 
[V:3] G4A4B4 | 
[V:4] z12 | 
[V:5] E,4z4z4 | 
[V:1] G2A2B4A2c2 | 
[V:2] E4D2F4E2 | 
[V:3] c4d6c2 | 
[V:4] z12 | 
[V:5] z12 | 
[V:1] d2e4d2c2B2- | 
[V:2] D2C2B,4E4 | 
[V:3] B2A2G4z4 | 
[V:4] z12 | 
[V:5] z12 | 
[V:1] B2A2c4A2d2- | 
[V:2] D2F3EC4F2- | 
[V:3] z4A4F4 | 
[V:4] z12 | 
[V:5] z12 | 
[V:1] dcBAG2A4^G2 | 
[V:2] FEDCB,2C2B,4 | 
[V:3] D4E8 | 
[V:4] z4z4E4 | 
[V:5] z4z2A,,2E,4 | 
[V:1] A4z4z4 | 
[V:2] A,4z4z4 | 
[V:3] z12 | 
[V:4] E2A4G2F2F2 | 
[V:5] A,,4A,,2E,3D,D,2 | 
[V:1] z12 | 
[V:2] z12 | 
[V:3] z12 | 
[V:4] E4D4z2A2- | 
[V:5] C,2C,2B,,4A,,4 | 
[V:1] z12 | 
[V:2] z12 | 
[V:3] z12 | 
[V:4] AGE2F2E2G3F | 
[V:5] z2E,2D,2E,3C,B,,2 | 
[V:1] z12 | 
[V:2] z12 | 
[V:3] z12 | 
[V:4] D2z2G4G2G2- | 
[V:5] z2E,4E,2E,3C, | 
[V:1] z12 | 
[V:2] z12 | 
[V:3] z12 | 
[V:4] G2F2E4A2G2 | 
[V:5] B,,2A,,2z2E,2D,2E,2 | 
[V:1] z12 | 
[V:2] z12 | 
[V:3] z12 | 
[V:4] A2DA2GFEF2E2 | 
[V:5] A,,A,2F,E,2D,C,/B,,/A,,D,2^C, | 
[V:1] z12 | 
[V:2] z2A,2B,2D4^C2 | 
[V:3] z4D4A4 | 
[V:4] D3EFGA3G/F/E2 | 
[V:5] D,8A,,4 | 
[V:1] z2D2E2G4F2 | 
[V:2] D4z4z4 | 
[V:3] B4c4d4 | 
[V:4] D2F2E4D4 | 
[V:5] z4z2C,2B,,2D,2 | 
[V:1] G3AB2A2B2d2- | 
[V:2] z12 | 
[V:3] e4f8 | 
[V:4] z4z4z2A2 | 
[V:5] z2C,2D,8 | 
[V:1] dcBAG4z4 | 
[V:2] z12 | 
[V:3] f4e4d4- | 
[V:4] B2d4c2B2A2 | 
[V:5] z2D,2E,3F,G,2F,2 | 
[V:1] z12 | 
[V:2] z4E4G4 | 
[V:3] d2cBc8 | 
[V:4] B4A4z2G2 | 
[V:5] G,4z2C,3D,E,2 | 
[V:1] z12 | 
[V:2] F2E2D2E3CB,2 | 
[V:3] z12 | 
[V:4] A2c2B2A4G2 | 
[V:5] A,,4z4z4 | 
[V:1] z2A2c2c2B2B2 | 
[V:2] A,4z4z4 | 
[V:3] z12 | 
[V:4] F4E2A3FG2 | 
[V:5] D,3C,A,,2C,2D,2E,2 | 
[V:1] A2c2B2e4d2 | 
[V:2] z2E2G4F4 | 
[V:3] z12 | 
[V:4] A2z2z4z4 | 
[V:5] F,2E,4C,2D,4 | 
[V:1] c2A2B4A4 | 
[V:2] E2A4G2F2D2 | 
[V:3] z12 | 
[V:4] z12 | 
[V:5] A,,4z4z4 | 
[V:1] G2A3GFEF4 | 
[V:2] EDCB,C2D3CB,A, | 
[V:3] z12 | 
[V:4] z12 | 
[V:5] z12 | 
[V:1] E4z4z4 | 
[V:2] C4z4z4 | 
[V:3] z4c4d4 | 
[V:4] A3AA2A4B2 | 
[V:5] z4F,3F,F,2G,2 | 
[V:1] z12 | 
[V:2] z12 | 
[V:3] e4f6ed | 
[V:4] c4d3cBAA2 | 
[V:5] E,4D,2D,2D,2D,2 | 
[V:1] z12 | 
[V:2] z12 | 
[V:3] c8c4 | 
[V:4] G2A3GA2G2E2- | 
[V:5] E,2F,3E,C,3D,E,2 | 
[V:1] z4z4G4 | 
[V:2] z12 | 
[V:3] c4d8 | 
[V:4] E2A2G3AB4 | 
[V:5] A,,2C,2B,,4z4 | 
[V:1] A4c3AB2c2 | 
[V:2] E4F4G2G2 | 
[V:3] z12 | 
[V:4] A8G4 | 
[V:5] z2A,4F,2E,2E,2 | 
[V:1] B2d3cBAG3A | 
[V:2] F2A4D2E3D | 
[V:3] z12 | 
[V:4] z2F2A3Bc2B2 | 
[V:5] D,4F,4E,2E,2- | 
[V:1] B2c4A2B4 | 
[V:2] B,2A,2C4B,4 | 
[V:3] e8d4 | 
[V:4] G2A3G/F/E2G4 | 
[V:5] E,D,C,B,,A,,4z4 | 
[V:1] A4F2E2G4 | 
[V:2] z2E2D2G3FED | 
[V:3] c4B8 | 
[V:4] A4z4G3F | 
[V:5] A,,2C,2D,2E,3D,B,,2 | 
[V:1] A4z4z4 | 
[V:2] E2F2EFEF2D2^C | 
[V:3] A12 | 
[V:4] E2D2EDA2D2E2 | 
[V:5] C,2D,2C,D,C,D,2C,/B,,/A,,2 | 
[V:1] F8F4 | 
[V:2] D4D4D4 | 
[V:3] z12 | 
[V:4] D4z4z4 | 
[V:5] D,4z4z4 | 
[V:1] G4G2A3AA2 | 
[V:2] E4E4F4 | 
[V:3] c8d4 | 
[V:4] z12 | 
[V:5] z12 | 
[V:1] A2A4c4BA | 
[V:2] F4E8 | 
[V:3] d4c4A4 | 
[V:4] z12 | 
[V:5] z12 | 
[V:1] G2F2G4A3B | 
[V:2] z4D4C3D | 
[V:3] _B8A4 | 
[V:4] z12 | 
[V:5] z12 | 
[V:1] c2d4c2B4 | 
[V:2] C2F4EDE4 | 
[V:3] F4G8 | 
[V:4] z12 | 
[V:5] z12 | 
[V:1] A6GFE4 | 
[V:2] A,3B,CDC4B,A, | 
[V:3] F6EDC4 | 
[V:4] z12 | 
[V:5] F,3G,A,_B,A,4G,F, | 
[V:1] z12 | 
[V:2] G,2C4A,2B,4 | 
[V:3] z12 | 
[V:4] C3DE2F4E2 | 
[V:5] E,3D,C,A,,A,4^G,2 | 
[V:1] z2A2c2c2c2B2 | 
[V:2] A,4z2A,2C2G,2 | 
[V:3] z12 | 
[V:4] F4E4z4 | 
[V:5] A,4A,,4z4 | 
[V:1] A4z2G2A2F2 | 
[V:2] C2D2E4z2D2 | 
[V:3] z12 | 
[V:4] z12 | 
[V:5] z12 | 
[V:1] E4D2G2A2B2- | 
[V:2] E2C2B,4C2B,2 | 
[V:3] z12 | 
[V:4] E3FG4F2G2- | 
[V:5] z12 | 
[V:1] B2AG^F4z2G2- | 
[V:2] G,4z2D2B,2E2- | 
[V:3] z12 | 
[V:4] G2E2D4E4 | 
[V:5] z12 | 
[V:1] G2G2G2A2B2B2 | 
[V:2] E2E2E2F2D4 | 
[V:3] z12 | 
[V:4] E2E4D2G2G2 | 
[V:5] z12 | 
[V:1] E4z4A4- | 
[V:2] z2A4A3GE2- | 
[V:3] c8A4 | 
[V:4] A3G/F/E2F2E2C2 | 
[V:5] A,,8A,,4- | 
[V:1] A4A8 | 
[V:2] E2F3EDCD3C | 
[V:3] A4F8 | 
[V:4] z2c2A2d3cA2 | 
[V:5] A,,4D,8 | 
[V:1] G3AB4B4 | 
[V:2] EFG4FED2E2- | 
[V:3] E6F2G4 | 
[V:4] c2B2G2A2B4 | 
[V:5] z2E,4D,C,B,,2E,2 | 
[V:1] c2d3cBAc2B2- | 
[V:2] E2F3ED2E3D/C/ | 
[V:3] A4G2F2E4 | 
[V:4] z2A2B2d2z2G2- | 
[V:5] A,,2D,2z2D,2C,2E,2- | 
[V:1] BAGFE2A4^G2 | 
[V:2] B,CD2E2C2B,4 | 
[V:3] z12 | 
[V:4] GAB2G2A2B4 | 
[V:5] E,C,B,,2C,2A,,2E,4 | 
[V:1] A4z4z4 | 
[V:2] z4E4F4 | 
[V:3] z12 | 
[V:4] A8z4 | 
[V:5] A,,4z4z4 | 
[V:1] z12 | 
[V:2] E4D2G4F2 | 
[V:3] z12 | 
[V:4] A4B4A4 | 
[V:5] z12 | 
[V:1] z12 | 
[V:2] G2E2F4E4 | 
[V:3] z12 | 
[V:4] G2c4B2c2A2 | 
[V:5] z12 | 
[V:1] z12 | 
[V:2] z2D2F2F2E4 | 
[V:3] z12 | 
[V:4] B4A2A2c2c2 | 
[V:5] z12 | 
[V:1] z12 | 
[V:2] D3CD2E3DB,2- | 
[V:3] z12 | 
[V:4] B3AGFE2G3A | 
[V:5] z12 | 
[V:1] z12 | 
[V:2] B,2A,2C3DE2D2- | 
[V:3] z12 | 
[V:4] BA/B/c2A2A4GF | 
[V:5] z12 | 
[V:1] z4A8 | 
[V:2] DB,^C2D6=CB, | 
[V:3] z4D8 | 
[V:4] E4F6G2 | 
[V:5] z4D,8 | 
[V:1] A6B2c4 | 
[V:2] A,4D4z4 | 
[V:3] F6G2A4 | 
[V:4] A4D4E2F2 | 
[V:5] D,6B,,2A,,4 | 
[V:1] B4A6GA | 
[V:2] D4E2F3EDC | 
[V:3] B4c6BA | 
[V:4] G4C2F3GA2 | 
[V:5] G,,4z4A,,4 | 
[V:1] B4c2d4c2 | 
[V:2] B,2E4A,2D2E2 | 
[V:3] G6A2B2c2 | 
[V:4] z2E4F2G2A2 | 
[V:5] E,6D,2B,,2A,,2 | 
[V:1] A2d4e2c2B2 | 
[V:2] F4D2G2z2E2 | 
[V:3] d6cBA2G2 | 
[V:4] D4F2E3FG2- | 
[V:5] z2D,2B,,2C,3A,,E,2- | 
[V:1] G2A2G2A2B4 | 
[V:2] E4D2C2D4 | 
[V:3] c4B2A4G2 | 
[V:4] GCC2D2E2D3E | 
[V:5] E,2A,,2B,,2C,2G,,4 | 
[V:1] A8A3G | 
[V:2] D3C/B,/CA,D2C2D2 | 
[V:3] A12- | 
[V:4] F4F3E/D/E2F2 | 
[V:5] D,2D,/E,/F,/G,/A,D,2C,/B,,/A,,2D,2 | 
[V:1] E2D2A4A4 ||  
[V:2] z2A,2D4^C4 ||  
[V:3] A12 ||  
[V:4] C2D2F4E4 ||  
[V:5] E,2F,3G,A,2A,,4 ||  
[V:1]  [K:C] [K:clef=treble][M:4/2]z8 | 
[V:2]  [K:C] [K:clef=treble][M:4/2]z8 | 
[V:3]  [K:C] [K:clef=treble-8][M:4/2]z8 | 
[V:4]  [K:C] [K:clef=treble-8][M:4/2]A8 | 
[V:5]  [K:C] [K:clef=bass][M:4/2]A,,8 | 
[V:1] z8 | 
[V:2] z8 | 
[V:3] z8 | 
[V:4] c4c4 | 
[V:5] A,,4A,,4 | 
[V:1] z8 | 
[V:2] z8 | 
[V:3] z8 | 
[V:4] d6cB | 
[V:5] B,,6A,,G,, | 
[V:1] z8 | 
[V:2] z8 | 
[V:3] z8 | 
[V:4] A4z4 | 
[V:5] C,4D,4 | 
[V:1] z8 | 
[V:2] z8 | 
[V:3] z8 | 
[V:4] A6A2 | 
[V:5] z2D,2C,2D,2- | 
[V:1] z8 | 
[V:2] z8 | 
[V:3] z8 | 
[V:4] A4A4 | 
[V:5] D,E,F,4E,D, | 
[V:1] z8 | 
[V:2] z8 | 
[V:3] z8 | 
[V:4] G2A3Bc2- | 
[V:5] E,D,C,B,,A,,3B,, | 
[V:1] z8 | 
[V:2] z8 | 
[V:3] z8 | 
[V:4] c2BAG3F | 
[V:5] C,D,E,F,2E,E,D,/E,/ | 
[V:1] z8 | 
[V:2] z8 | 
[V:3] z8 | 
[V:4] D4C4 | 
[V:5] F,4z2E,2- | 
[V:1] z8 | 
[V:2] z8 | 
[V:3] z8 | 
[V:4] F4G4 | 
[V:5] E,C,D,2E,4 | 
[V:1] z8 | 
[V:2] z8 | 
[V:3] z8 | 
[V:4] z2A2B2c2- | 
[V:5] A,,4z2A,,2 | 
[V:1] z8 | 
[V:2] z8 | 
[V:3] z8 | 
[V:4] cB/A/G2A2Bc- | 
[V:5] E,3D,/E,/F,2E,2- | 
[V:1] z8 | 
[V:2] z8 | 
[V:3] z8 | 
[V:4] cAA4^G2 | 
[V:5] E,C,D,2B,,4 | 
[V:1] z4A4 | 
[V:2] z4C4 | 
[V:3] z8 | 
[V:4] A8 | 
[V:5] A,,8 | 
[V:1] A4A3B | 
[V:2] D3CD2F2- | 
[V:3] z8 | 
[V:4] z8 | 
[V:5] z8 | 
[V:1] c2d4^c2 | 
[V:2] F2D2E4 | 
[V:3] z8 | 
[V:4] z8 | 
[V:5] z8 | 
[V:1] d4z4 | 
[V:2] D4D4 | 
[V:3] z8 | 
[V:4] z8 | 
[V:5] z8 | 
[V:1] A4c4- | 
[V:2] F3GA_BA2- | 
[V:3] z8 | 
[V:4] z8 | 
[V:5] z8 | 
[V:1] c4c4 | 
[V:2] A2GFE3D | 
[V:3] z8 | 
[V:4] z8 | 
[V:5] z8 | 
[V:1] B4d4- | 
[V:2] G4G4 | 
[V:3] z8 | 
[V:4] z8 | 
[V:5] z8 | 
[V:1] d2c2A4 | 
[V:2] F6ED | 
[V:3] z8 | 
[V:4] z8 | 
[V:5] z8 | 
[V:1] G3EF2E2 | 
[V:2] E4z2E2- | 
[V:3] z8 | 
[V:4] z8 | 
[V:5] z8 | 
[V:1] G3AB2c2- | 
[V:2] E2C2B,2A,2 | 
[V:3] z8 | 
[V:4] z8 | 
[V:5] z8 | 
[V:1] c2B2A2B2- | 
[V:2] E4F2E2- | 
[V:3] z8 | 
[V:4] z8 | 
[V:5] z8 | 
[V:1] BAA4^G2 | 
[V:2] ECD2B,4 | 
[V:3] z8 | 
[V:4] z8 | 
[V:5] z8 | 
[V:1] A4z4 | 
[V:2] A,4z4 | 
[V:3] z8 | 
[V:4] z8 | 
[V:5] z8 | 
[V:1] A8 | 
[V:2] A,8 | 
[V:3] z8 | 
[V:4] F8 | 
[V:5] D,8 | 
[V:1] F4F4 | 
[V:2] D4D4 | 
[V:3] z8 | 
[V:4] A4A2A2- | 
[V:5] D,4D,4 | 
[V:1] E4E4 | 
[V:2] C4A,4 | 
[V:3] z8 | 
[V:4] A2GFE2A2- | 
[V:5] A,,8 | 
[V:1] F4E4 | 
[V:2] D4C4 | 
[V:3] z8 | 
[V:4] A2F3GA2 | 
[V:5] z4A,,4 | 
[V:1] D4F4 | 
[V:2] D4D4 | 
[V:3] z8 | 
[V:4] F4D4 | 
[V:5] D,4D,4 | 
[V:1] A4A4 | 
[V:2] C4D4 | 
[V:3] z8 | 
[V:4] z4D4 | 
[V:5] F,4F,4 | 
[V:1] G4G4 | 
[V:2] E8 | 
[V:3] c8 | 
[V:4] G6G2 | 
[V:5] E,6E,2 | 
[V:1] F2A4B2 | 
[V:2] z4F4 | 
[V:3] d4d4 | 
[V:4] A4D2F2 | 
[V:5] D,4D,4 | 
[V:1] c4F4 | 
[V:2] E2C4F2 | 
[V:3] c4A4 | 
[V:4] G2A3GFE | 
[V:5] E,2F,3E,D,C, | 
[V:1] z2F4G2 | 
[V:2] G2FED4 | 
[V:3] _B4_B4 | 
[V:4] D4D3E | 
[V:5] _B,,3C,D,2B,,2 | 
[V:1] A6GF | 
[V:2] C4z4 | 
[V:3] A4c4- | 
[V:4] F8 | 
[V:5] z2F,4E,D, | 
[V:1] E8 | 
[V:2] C8 | 
[V:3] c2_BAG4 | 
[V:4] G4E4 | 
[V:5] C,8 | 
[V:1] D4z4 | 
[V:2] A,4A,2_B,2 | 
[V:3] F4z4 | 
[V:4] z2F2E2F2- | 
[V:5] D,4C,2D,2- | 
[V:1] D6C2 | 
[V:2] A,2_B,3A,/B,/C2 | 
[V:3] F8 | 
[V:4] FEDCD2A2 | 
[V:5] D,C,_B,,A,,B,,2A,,2 | 
[V:1] D4D4 | 
[V:2] _B,2G,4F,2 | 
[V:3] D4D4 | 
[V:4] F2G3FD2 | 
[V:5] _B,,4B,,4 | 
[V:1] E4z4 | 
[V:2] A,4z4 | 
[V:3] C8 | 
[V:4] z2A4F2 | 
[V:5] A,,8 | 
[V:1] E8 | 
[V:2] B,8 | 
[V:3] z8 | 
[V:4] G8 | 
[V:5] E,8 | 
[V:1] E4E4- | 
[V:2] B,4B,4- | 
[V:3] z8 | 
[V:4] G8 | 
[V:5] E,4E,4- | 
[V:1] E4D4 | 
[V:2] B,4B,4 | 
[V:3] z8 | 
[V:4] G6F2 | 
[V:5] E,2D,C,B,,4 | 
[V:1] E2F2G2E2- | 
[V:2] C4B,4 | 
[V:3] z8 | 
[V:4] A4G4 | 
[V:5] A,,4E,4 | 
[V:1] E2D2E4 | 
[V:2] A,4G,3A, | 
[V:3] z4C4 | 
[V:4] A3Bc4 | 
[V:5] F,4E,2C,2 | 
[V:1] z2D2E2F2- | 
[V:2] B,4C2B,2- | 
[V:3] F4E2D2- | 
[V:4] z2F2G2F2- | 
[V:5] D,4C,2D,2- | 
[V:1] F2E2D4 | 
[V:2] B,A,A,4^G,2 | 
[V:3] D2C2D4 | 
[V:4] FGA2F2D2 | 
[V:5] D,C,B,,A,,B,,4 | 
[V:1] z4F4- | 
[V:2] A,4z4 | 
[V:3] z8 | 
[V:4] E4D4 | 
[V:5] A,,4z4 | 
[V:1] F4F4 | 
[V:2] A,4C4 | 
[V:3] z8 | 
[V:4] z4A4- | 
[V:5] z8 | 
[V:1] A4A4 | 
[V:2] C4D4 | 
[V:3] z8 | 
[V:4] A4F4 | 
[V:5] z8 | 
[V:1] G4G4 | 
[V:2] E4E4 | 
[V:3] z8 | 
[V:4] E4E4 | 
[V:5] z8 | 
[V:1] A4B4 | 
[V:2] F6ED | 
[V:3] z8 | 
[V:4] D4D4 | 
[V:5] z8 | 
[V:1] c3BAGA2- | 
[V:2] E3DE2F2- | 
[V:3] z8 | 
[V:4] A4z2D2- | 
[V:5] z8 | 
[V:1] AGFED4 | 
[V:2] FEDCB,4 | 
[V:3] z8 | 
[V:4] DEFDG4 | 
[V:5] z8 | 
[V:1] D4E4 | 
[V:2] z4B,4 | 
[V:3] z8 | 
[V:4] F2G3FED | 
[V:5] z8 | 
[V:1] E4D4 | 
[V:2] C4A,4 | 
[V:3] z8 | 
[V:4] C4z2F2 | 
[V:5] z2C,2D,C,B,,A,, | 
[V:1] d4B2A2 | 
[V:2] B,4E4- | 
[V:3] z8 | 
[V:4] G3AB2c2- | 
[V:5] G,,2G,4A,2- | 
[V:1] c4B2A2- | 
[V:2] E4F2D2 | 
[V:3] z8 | 
[V:4] cBAGd2D2 | 
[V:5] A,G,F,E,D,4 | 
[V:1] AGG4^F2 | 
[V:2] B,2G,2A,B,CD | 
[V:3] z8 | 
[V:4] E4D2z2 | 
[V:5] z8 | 
[V:1] G3ABcB2- | 
[V:2] B,2E3CD2 | 
[V:3] z8 | 
[V:4] G3FE2D2 | 
[V:5] z8 | 
[V:1] B2AG^F4 | 
[V:2] B,2C2D4- | 
[V:3] z8 | 
[V:4] E4D4 | 
[V:5] z8 | 
[V:1] z4^F4 | 
[V:2] D2B,2A,2D2- | 
[V:3] z8 | 
[V:4] z8 | 
[V:5] D,8 | 
[V:1] G4G4 | 
[V:2] DCB,A,B,4 | 
[V:3] z8 | 
[V:4] z8 | 
[V:5] E,4E,4 | 
[V:1] A4G4 | 
[V:2] A,4z4 | 
[V:3] c8 | 
[V:4] z8 | 
[V:5] A,,4E,4 | 
[V:1] F2G3FED | 
[V:2] z8 | 
[V:3] d4d4 | 
[V:4] z8 | 
[V:5] D,2B,,3C,D,2 | 
[V:1] E4D4 | 
[V:2] z8 | 
[V:3] c4A4 | 
[V:4] z8 | 
[V:5] z2A,,2D,4 | 
[V:1] E2G4FE | 
[V:2] z8 | 
[V:3] B8 | 
[V:4] z8 | 
[V:5] G,,8 | 
[V:1] F4z4 | 
[V:2] D3C/B,/A,2E2- | 
[V:3] A4c4- | 
[V:4] z8 | 
[V:5] D,4z2A,,2- | 
[V:1] z8 | 
[V:2] E2D2E3D | 
[V:3] c2BAG4 | 
[V:4] z8 | 
[V:5] A,,2B,,2C,3D, | 
[V:1] z8 | 
[V:2] B,2E3D/C/B,A, | 
[V:3] z8 | 
[V:4] G4A3G/F/ | 
[V:5] E,4z4 | 
[V:1] z8 | 
[V:2] C4B,4 | 
[V:3] z8 | 
[V:4] E2A2B2d2- | 
[V:5] z8 | 
[V:1] A4G2A2- | 
[V:2] A,4z4 | 
[V:3] z8 | 
[V:4] dccAB2A2 | 
[V:5] z8 | 
[V:1] AG/F/EDF4 | 
[V:2] z8 | 
[V:3] z8 | 
[V:4] c3BBAd2- | 
[V:5] A,,4D,4 | 
[V:1] E4D4 | 
[V:2] z8 | 
[V:3] z8 | 
[V:4] dcc3BB2 | 
[V:5] A,,4D,4 | 
[V:1] z8 | 
[V:2] C2D2E2F2- | 
[V:3] z8 | 
[V:4] A2B2A2d2- | 
[V:5] z8 | 
[V:1] z8 | 
[V:2] FEF2G2C2 | 
[V:3] z8 | 
[V:4] dc_BA_B2A2 | 
[V:5] z8 | 
[V:1] z8 | 
[V:2] D2F4E2 | 
[V:3] z8 | 
[V:4] F4G4 | 
[V:5] z8 | 
[V:1] z8 | 
[V:2] F3EC4 | 
[V:3] z8 | 
[V:4] F3GA4 | 
[V:5] z8 | 
[V:1] A3Bc2d2 | 
[V:2] D4z2D2 | 
[V:3] F8 | 
[V:4] DEFGA3G | 
[V:5] D,3C,/B,,/A,,2_B,,2 | 
[V:1] c2d2c2A2- | 
[V:2] F3GA2F2- | 
[V:3] F8 | 
[V:4] A2D2z2A2 | 
[V:5] A,,2_B,,2A,,2D,2- | 
[V:1] A2G2B4 | 
[V:2] FED2z2G2 | 
[V:3] D4D4 | 
[V:4] F2G3FD2 | 
[V:5] D,C,_B,,A,,G,,4 | 
[V:1] c2A4G2 | 
[V:2] E2F3EE2- | 
[V:3] C8 | 
[V:4] z2c3Bc2- | 
[V:5] A,,4E,4 | 
[V:1] A4z4 | 
[V:2] E2D2E4 | 
[V:3] z4C4 | 
[V:4] c2A2G4 | 
[V:5] F,4E,3C, | 
[V:1] A4_B4 | 
[V:2] D4z4 | 
[V:3] F4E2D2- | 
[V:4] z2F2G4 | 
[V:5] D,4G,,4 | 
[V:1] A2c2_B2A2- | 
[V:2] A4F3D | 
[V:3] D2C2D4 | 
[V:4] F2E2D2F2 | 
[V:5] A,,4z2D,2 | 
[V:1] A2F2E4 | 
[V:2] E2C2B,4 | 
[V:3] z8 | 
[V:4] E2A4^G2 | 
[V:5] C,2A,,2E,4 | 
[V:1] z8 | 
[V:2] C4z4 | 
[V:3] z8 | 
[V:4] A4z4 | 
[V:5] z4A,,4 | 
[V:1] z8 | 
[V:2] z8 | 
[V:3] D3EF2G2- | 
[V:4] z8 | 
[V:5] B,,2D,4C,B,, | 
[V:1] z8 | 
[V:2] z8 | 
[V:3] G2E2F3E/F/ | 
[V:4] z8 | 
[V:5] C,3B,,/C,/D,4 | 
[V:1] z8 | 
[V:2] z8 | 
[V:3] G4z4 | 
[V:4] z8 | 
[V:5] z4B,,4 | 
[V:1] z8 | 
[V:2] z8 | 
[V:3] E4F4 | 
[V:4] z8 | 
[V:5] C,4D,4 | 
[V:1] z8 | 
[V:2] z8 | 
[V:3] G4A4 | 
[V:4] z8 | 
[V:5] E,4z2D,2 | 
[V:1] z8 | 
[V:2] z8 | 
[V:3] z2A2B2c2 | 
[V:4] z8 | 
[V:5] E,2F,2G,2E,2 | 
[V:1] z8 | 
[V:2] z8 | 
[V:3] d2d2c3B | 
[V:4] z8 | 
[V:5] D,2F,3E,E,2- | 
[V:1] z8 | 
[V:2] z8 | 
[V:3] G4c2Bc | 
[V:4] z8 | 
[V:5] E,D,/C,/B,,3/A,,/E,F,G,A, | 
[V:1] z8 | 
[V:2] z8 | 
[V:3] Bc2B2A2^G | 
[V:4] z8 | 
[V:5] G,A,2D,2C,B,,2 | 
[V:1] z8 | 
[V:2] z8 | 
[V:3] A4z4 | 
[V:4] z2A2_B2_B2 | 
[V:5] A,,4G,,4 | 
[V:1] z8 | 
[V:2] E4F2F2 | 
[V:3] z8 | 
[V:4] A2c2_B2A2- | 
[V:5] z8 | 
[V:1] z8 | 
[V:2] E2G2F2E2- | 
[V:3] z8 | 
[V:4] A2G2A4 | 
[V:5] z8 | 
[V:1] z8 | 
[V:2] E2D2E4 | 
[V:3] z8 | 
[V:4] z2d3Bc2 | 
[V:5] z8 | 
[V:1] z8 | 
[V:2] z2A3FG2 | 
[V:3] z8 | 
[V:4] d2A2_B4 | 
[V:5] z8 | 
[V:1] z8 | 
[V:2] A2E2F4 | 
[V:3] z8 | 
[V:4] A4z2d2- | 
[V:5] z8 | 
[V:1] z8 | 
[V:2] E4z2A2- | 
[V:3] z8 | 
[V:4] dcc2_B2A2 | 
[V:5] z8 | 
[V:1] z8 | 
[V:2] AGG2F2E2 | 
[V:3] z8 | 
[V:4] c4A2G2- | 
[V:5] z8 | 
[V:1] z8 | 
[V:2] G3FD3C | 
[V:3] z8 | 
[V:4] G2_B3AF2- | 
[V:5] z8 | 
[V:1] z8 | 
[V:2] A,3B,C2D2 | 
[V:3] z8 | 
[V:4] FE/D/CDEF2G | 
[V:5] z8 | 
[V:1] z8 | 
[V:2] C2F4E2 | 
[V:3] z8 | 
[V:4] A2B2c4- | 
[V:5] z8 | 
[V:1] z8 | 
[V:2] F4z4 | 
[V:3] z8 | 
[V:4] c4z2B2 | 
[V:5] F,4E,2D,2 | 
[V:1] A4G4 | 
[V:2] z8 | 
[V:3] z8 | 
[V:4] A2d3cc2- | 
[V:5] F,4E,4 | 
[V:1] A4G2G2 | 
[V:2] z8 | 
[V:3] z8 | 
[V:4] c2A2B2c2- | 
[V:5] F,4E,4 | 
[V:1] A4G2E2 | 
[V:2] z8 | 
[V:3] z8 | 
[V:4] c2BAc2B2- | 
[V:5] F,4E,4 | 
[V:1] F4E4 | 
[V:2] z4E4 | 
[V:3] z8 | 
[V:4] B2A4^G2 | 
[V:5] D,4E,4 | 
[V:1] z8 | 
[V:2] C4D2E2- | 
[V:3] z8 | 
[V:4] A4G4 | 
[V:5] A,,4z4 | 
[V:1] z8 | 
[V:2] E2A,2B,2A,2 | 
[V:3] z8 | 
[V:4] A4D4 | 
[V:5] z4z2D,2 | 
[V:1] z8 | 
[V:2] C2B,2D2E2- | 
[V:3] z8 | 
[V:4] E2D2F2G2 | 
[V:5] C,2D,4G,,2 | 
[V:1] z8 | 
[V:2] E2F2E2F2- | 
[V:3] z8 | 
[V:4] E2A2G2A2- | 
[V:5] A,,4z4 | 
[V:1] z8 | 
[V:2] FDD4^C2 | 
[V:3] z8 | 
[V:4] A2D2E4 | 
[V:5] z8 | 
[V:1] z8 | 
[V:2] D4z4 | 
[V:3] z8 | 
[V:4] D4z4 | 
[V:5] z4D,4- | 
[V:1] A4B4 | 
[V:2] D8 | 
[V:3] D8 | 
[V:4] F4G3F | 
[V:5] D,4B,,4 | 
[V:1] c4A2d2- | 
[V:2] C4F4- | 
[V:3] E2F4G2 | 
[V:4] A6D2 | 
[V:5] A,,4D,4- | 
[V:1] dcA3GF2 | 
[V:2] F4D4 | 
[V:3] A4B4 | 
[V:4] D4F4 | 
[V:5] D,8 | 
[V:1] E2G4A2 | 
[V:2] E6DC | 
[V:3] c6BA | 
[V:4] G4C4 | 
[V:5] C,4E,4- | 
[V:1] B4c4 | 
[V:2] B,3A,E4 | 
[V:3] G6A2 | 
[V:4] G4z2E2 | 
[V:5] E,4C,4 | 
[V:1] B2G2F2A2 | 
[V:2] z2E2D2F2- | 
[V:3] B2c2d4- | 
[V:4] F2G2A4 | 
[V:5] D,2E,2F,2D,2- | 
[V:1] z2A4B2 | 
[V:2] F2EDC4 | 
[V:3] d2cBA2G2 | 
[V:4] D4F2G2 | 
[V:5] D,2F,4E,2- | 
[V:1] c2A2d2c2 | 
[V:2] E4F4 | 
[V:3] c4B2A2 | 
[V:4] E2A2D2F2 | 
[V:5] E,2C,2D,2A,,2 | 
[V:1] B4z2E2 | 
[V:2] D2D4^C2 | 
[V:3] z2G2A4- | 
[V:4] G2D2E4 | 
[V:5] B,,4A,,4 | 
[V:1] F6G2 | 
[V:2] D8 | 
[V:3] A8- | 
[V:4] D8 | 
[V:5] z8 | 
[V:1] A8- | 
[V:2] D8 | 
[V:3] A8- | 
[V:4] F8 | 
[V:5] D,8 | 
[V:1] A8 |]  
[V:2] E8 |]  
[V:3] A8 |]  
[V:4] E8 |]  
[V:5] A,,8 |]  



